X: 1
T:Fairy Dance
R:Reel
O:Ireland
O:England
M:4/4
C:Nathaniel Gow 
K:D
f2fd f2fd|f2fd ce cA|f2fd gfed|cABc defg::
a2af b2ba|gfge a2ag|f2fd gfed\
|1 cABc defg:|2 cABc d4|]
